X: 03075
T: REEL ACADIEN
C: Bob McQuillen Oct 76
B: Bob's Note Book 03 #75
R: reel
%D:1976
Z: 2020 John Chambers <jc:trillian.mit.edu>
M: C
L: 1/8
K: G
GE \
| DGGB AGGA | Bdde dBAB | DGGB AGGB | dBAc BGGE |
| DGGB AGGA | Bdde dBAB | dggd edBG | GBAF G2  :|
|: Bc \
| dggd egge | dggd dBBc | dggd egge | dgab a2de |
| dggd egge | dggd BGGA | BGGd BGGE | DGGA G2  :|
%%begintext align
%% Pour mes bons amis au
%% sud qui jouent de la musique
%% magnifique - Mark Savoy,
%% "Coteau", et beaucoup d'autres.
%%endtext

%%sep 1 1 500

%%sep 1 1 500

